X:1
T:8 Lieder and Romances, Op.14
T:Gang zur Liebsten
T:6. Gang zur Liebsten
T:Johannes Brahms
T:Volkslied
T:8 Lieder and Romances, Op.14
T:OpenScore (CC0)
C:Johannes Brahms
Z:Volkslied
Z:OpenScore (CC0)
%%score ( 1 2 ) { ( 3 5 ) | ( 4 6 ) }
L:1/8
Q:1/4=75
M:6/8
K:G
V:1 treble nm="Singstimme\nVoice"
V:2 treble 
V:3 treble nm="Pianoforte"
V:5 treble 
V:4 bass 
V:6 bass 
V:1
"^Andante, con espressione" A | A2 A B B e | d2 B G2 d | B G d (BG) e | d2 ^c B2 =A | B B d B A A | %6
w: 1. Des|A- bends kann ich nicht|schla- fen gehn, zu|mei- ner Herz- lieb- * sten|muss ich gehn, zu|mei- ner Herz- lieb- * sten|
w: 2. Wer|ist denn da? * wer|klop- fet an, der|mich * so leis * auf-|we- cken kann? Das|ist * der Herz- al- ler-|
w: 3. Wenn|al- le Ster- * ne|Schrei- ber gut, und|al- * le Wol- ken Pa-|pier da- zu, so|soll- ten sie schrei- ben der|
w: 4. Ach|hätt ich Fe- * dern|wie ein Hahn und|könnt * ich schw im- men|wie ein Schwan, so|wollt * ich schwim- men wohl|
 G G A B2 A | B B d B B A | G G A B2 e | (g2 f e2) ^d | e2 z z2 z | z6 | z2 z z2 :| %13
w: muss * ich gehn, und|sollt * ich an * der|Tür blei- ben stehn, ganz|hei- * * me-|lig!|||
w: lieb- * ste dein, steh|auf, * mein Schatz, * und|lass * mich ein, ganz|hei- * * me-|lig!|||
w: Lie- * ben mein, sie|bräch- ten die Lieb in den|Brief * nicht ein, ganz|hein- * * me-|lig!|||
w: ü- ber den Rhein, hin|zu * der Herz- al- ler-|lieb- * sten mein, ganz|hein- * * me-|lig!|||
V:2
 x | x3 B2 e | x6 | (BG) d B G x | x6 | B2 d B2 A | G2 A x3 | B2 d B2 A | G2 A x3 | x6 | x6 | x6 | %12
 x5 :| %13
V:3
!pp! A | A2 A B2 e | d2 B G2 d | (BG) d (BG) (e |!pp!!<(! d2 ^c B2)!<)! ([D=A] | %5
!mp! [GB]2 [Ad] [GB]2 [DA]) | ([B,G]2 [DA] [GB]2) ([FA] | [GB]2 [Fd] [GB]2 [FA]) | %8
 ([EG]2 [FA] [GB]2)!p! ([Ge] | [Ac]3 [GB]2 [FA]) | ([EG]2 [CF] [B,-E]2 [B,^D]) | %11
!>(! [B,E]2 ([A,B,-] [G,B,]2) ([F,B,-]!>)! | [G,B,]3) z2 :| %13
V:4
"^espressivo" [A,C] | ([CE]>[B,D][A,C] [G,B,][F,A,][E,G,]) | ([F,A,][G,B,][B,D]-) [B,D]2 [F,A,] | %3
 ([G,B,][B,D]) [F,A,] ([G,B,][B,D]) (E, | F,2 F,, B,,2)!p! D, | (G,,G,D, G,,G,D,) | %6
 (G,,G,D, G,,G,D,) | (E,,E,B,, E,,E,B,,) | (E,,E,B,, E,,E,C,) | (A,,A,E, B,,B,F,) | %10
 (C,CA, B,,G,F,) | (G,,E,F,, E,,B,,B,,,) | (E,,2 B,, E,2) :| %13
V:5
 x | x6 | x6 | x5 [GB] | [FB]2 [E^A] D2 x | x6 | x6 | x6 | x6 | x6 | x6 | x6 | x5 :| %13
V:6
 x | x6 | x6 | x6 | x6 | x6 | x6 | x6 | x6 | x6 | x6 | G,,2 F,, E,,2 B,,, | x5 :| %13

